X:12
T:The Clapped-out Landrover
C:Bob Massie
H:1998
N:One for Steve Briggs
M:2/4
L:1/8
Q:1/4=120     %Tempo
K:D
FA B/c/B/A/ |FA B/c/B/A/ |dc/d/ c/B/A |E4 |
cB/c/ B[cBA] |c//d/c//=c ^cB |AG F=F |F4 |
FA B/c/B/A/ |FA B/c/B/A/ |dc/d/ c/B/A |E4 |
cB/c/ BA |cc cB |AG FE |D4 |
F2 A2 |B/c/B/A/ F2 |dc/d/ c/B/A |E4 |
cB/c/ BA |cc cB |AG F=F |F4 |
d2 c2 |B/c/B/A/ F2 |dc/d/ c/B/A |E4 |
cB/c/ B[cBA] |c//d/c//=c ^cB |AG FE |D4 |]
